static/icon/light-mode.svg

<svg viewBox="0 0 24 24" xmlns="http://www.w3.org/2000/svg"><circle cx="12" cy="12" fill="#EECB00" r="5"/><path d="M21 13h-1a1 1 0 010-2h1a1 1 0 010 2zM4 13H3a1 1 0 010-2h1a1 1 0 010 2zM17.66 7.34a1 1 0 01-.66-.29 1 1 0 010-1.41l.71-.71a1 1 0 111.41 1.41l-.71.71a1 1 0 01-.75.29zM5.64 19.36a1 1 0 01-.71-.29 1 1 0 010-1.41l.71-.66a1 1 0 011.41 1.41l-.71.71a1 1 0 01-.7.24zM12 5a1 1 0 01-1-1V3a1 1 0 012 0v1a1 1 0 01-1 1zM12 22a1 1 0 01-1-1v-1a1 1 0 012 0v1a1 1 0 01-1 1zM6.34 7.34a1 1 0 01-.7-.29l-.71-.71a1 1 0 011.41-1.41l.71.71a1 1 0 010 1.41 1 1 0 01-.71.29zM18.36 19.36a1 1 0 01-.7-.29l-.66-.71A1 1 0 0118.36 17l.71.71a1 1 0 010 1.41 1 1 0 01-.71.24z" fill="#EECB00"/></svg>

<?xml version="1.0" ?><svg viewBox="0 0 24 24" xmlns="http://www.w3.org/2000/svg"><title/><circle cx="12" cy="12" fill="#EECB00" r="5"/><path d="M21,13H20a1,1,0,0,1,0-2h1a1,1,0,0,1,0,2Z" fill="#EECB00"/><path d="M4,13H3a1,1,0,0,1,0-2H4a1,1,0,0,1,0,2Z" fill="#EECB00"/><path d="M17.66,7.34A1,1,0,0,1,17,7.05a1,1,0,0,1,0-1.41l.71-.71a1,1,0,1,1,1.41,1.41l-.71.71A1,1,0,0,1,17.66,7.34Z" fill="#EECB00"/><path d="M5.64,19.36a1,1,0,0,1-.71-.29,1,1,0,0,1,0-1.41L5.64,17a1,1,0,0,1,1.41,1.41l-.71.71A1,1,0,0,1,5.64,19.36Z" fill="#EECB00"/><path d="M12,5a1,1,0,0,1-1-1V3a1,1,0,0,1,2,0V4A1,1,0,0,1,12,5Z" fill="#EECB00"/><path d="M12,22a1,1,0,0,1-1-1V20a1,1,0,0,1,2,0v1A1,1,0,0,1,12,22Z" fill="#EECB00"/><path d="M6.34,7.34a1,1,0,0,1-.7-.29l-.71-.71A1,1,0,0,1,6.34,4.93l.71.71a1,1,0,0,1,0,1.41A1,1,0,0,1,6.34,7.34Z" fill="#EECB00"/><path d="M18.36,19.36a1,1,0,0,1-.7-.29L17,18.36A1,1,0,0,1,18.36,17l.71.71a1,1,0,0,1,0,1.41A1,1,0,0,1,18.36,19.36Z" fill="#EECB00"/></svg>
